styles/1/Numix/64/places/orange-folder-ubuntu.svg

<?xml version="1.0" encoding="UTF-8" standalone="no"?>
<!-- Created with Inkscape (http://www.inkscape.org/) -->

<svg
   xmlns:dc="http://purl.org/dc/elements/1.1/"
   xmlns:cc="http://creativecommons.org/ns#"
   xmlns:rdf="http://www.w3.org/1999/02/22-rdf-syntax-ns#"
   xmlns:svg="http://www.w3.org/2000/svg"
   xmlns="http://www.w3.org/2000/svg"
   xmlns:sodipodi="http://sodipodi.sourceforge.net/DTD/sodipodi-0.dtd"
   xmlns:inkscape="http://www.inkscape.org/namespaces/inkscape"
   width="64"
   height="64"
   id="svg2"
   version="1.1"
   inkscape:version="0.91 r"
   sodipodi:docname="orange-folder-ubuntu.svg"
   inkscape:export-filename="/media/Data/Main/Visuals/Icons/Numix/Desktop/repos/numix-wiki/Gjorgi/Numix-folders/48/New/folder-144.png"
   inkscape:export-xdpi="270"
   inkscape:export-ydpi="270">
  <defs
     id="defs4" />
  <sodipodi:namedview
     id="base"
     pagecolor="#ffffff"
     bordercolor="#666666"
     borderopacity="1.0"
     inkscape:pageopacity="0.0"
     inkscape:pageshadow="2"
     inkscape:zoom="3.4805561"
     inkscape:cx="14.187239"
     inkscape:cy="-11.251505"
     inkscape:document-units="px"
     inkscape:current-layer="layer1"
     showgrid="true"
     inkscape:window-width="1280"
     inkscape:window-height="998"
     inkscape:window-x="0"
     inkscape:window-y="0"
     inkscape:window-maximized="1"
     showguides="true"
     inkscape:guide-bbox="true">
    <inkscape:grid
       type="xygrid"
       id="grid2985"
       empspacing="5"
       visible="true"
       enabled="true"
       snapvisiblegridlinesonly="true" />
  </sodipodi:namedview>
  <metadata
     id="metadata7">
    <rdf:RDF>
      <cc:Work
         rdf:about="">
        <dc:format>image/svg+xml</dc:format>
        <dc:type
           rdf:resource="http://purl.org/dc/dcmitype/StillImage" />
        <dc:title />
      </cc:Work>
    </rdf:RDF>
  </metadata>
  <g
     inkscape:label="Layer 1"
     inkscape:groupmode="layer"
     id="layer1"
     transform="translate(0,-988.3622)">
    <path
       style="font-size:medium;font-style:normal;font-variant:normal;font-weight:normal;font-stretch:normal;text-indent:0;text-align:start;text-decoration:none;line-height:normal;letter-spacing:normal;word-spacing:normal;text-transform:none;direction:ltr;block-progression:tb;writing-mode:lr-tb;text-anchor:start;baseline-shift:baseline;color:#000000;fill:#f57c00;fill-opacity:1;fill-rule:nonzero;stroke:none;stroke-width:2.28612947;marker:none;visibility:visible;display:inline;overflow:visible;enable-background:accumulate;font-family:Sans;-inkscape-font-specification:Sans"
       d="M 6.0625 10 C 4.9330849 10.1109 3.9815877 11.17777 4 12.3125 L 4 51.6875 C 3.986 52.9021 5.0979255 54.0139 6.3125 54 L 57.6875 54 C 58.902076 54.014 60.013966 52.9021 60 51.6875 L 60 16.3125 C 60.014 15.0979 58.902076 13.9861 57.6875 14 L 38 14 L 38 12.3125 C 38.01375 11.11867 36.943717 10.019 35.75 10 L 6.3125 10 C 6.22925 10 6.1457495 9.9999 6.0625 10 z M 43 20 C 44.656854 20 46 21.343146 46 23 C 46 24.656854 44.656854 26 43 26 C 41.343146 26 40 24.656854 40 23 C 40 21.343146 41.343146 20 43 20 z M 32 22 C 34.302609 22 36.454287 22.65685 38.28125 23.78125 C 38.111916 24.15695 38 24.5611 38 25 C 38 26.6569 39.343146 28 41 28 C 41.438855 28 41.843043 27.88805 42.21875 27.71875 C 43.176298 29.27455 43.775046 31.0804 43.9375 33 L 39.9375 33 C 39.443689 29.0556 36.078288 26 32 26 C 30.83016 26 29.720341 26.26745 28.71875 26.71875 L 25.75 23.75 C 27.570103 22.6326 29.707986 22 32 22 z M 24.15625 24.96875 L 26.96875 27.78125 C 25.159812 29.24795 24 31.4897 24 34 C 24 36.7207 25.362257 39.1172 27.4375 40.5625 L 24.5625 43.4375 C 22.454243 41.7703 20.935065 39.3942 20.3125 36.6875 C 21.307783 36.1993 22 35.1834 22 34 C 22 32.8166 21.307783 31.8007 20.3125 31.3125 C 20.890361 28.8001 22.277268 26.60695 24.15625 24.96875 z M 16 31 C 17.656854 31 19 32.343146 19 34 C 19 35.656854 17.656854 37 16 37 C 14.343146 37 13 35.656854 13 34 C 13 32.343146 14.343146 31 16 31 z M 39.9375 35 L 43.9375 35 C 43.721756 37.6125 42.682973 39.97295 41.0625 41.84375 C 40.523858 41.32875 39.804062 41 39 41 C 37.343146 41 36 42.3431 36 44 C 36 44.4389 36.111916 44.84295 36.28125 45.21875 C 34.948232 45.72955 33.512741 46 32 46 C 29.924037 46 27.983173 45.46115 26.28125 44.53125 L 29.3125 41.5 C 30.154694 41.8013 31.054212 42 32 42 C 36.078288 42 39.443689 38.9444 39.9375 35 z M 41 43 C 42.656854 43 44 44.343146 44 46 C 44 47.656854 42.656854 49 41 49 C 39.343146 49 38 47.656854 38 46 C 38 44.343146 39.343146 43 41 43 z "
       transform="translate(0,988.3622)"
       id="path3912" />
  </g>
</svg>

<!-- Created with Inkscape (http://www.inkscape.org/) -->
<svg xmlns="http://www.w3.org/2000/svg" viewBox="0 0 64 64">
 <g transform="translate(0,-988.3622)">
  <path d="m 6.06 10 c -1.129 0.111 -2.081 1.178 -2.063 2.313 l 0 39.38 c -0.014 1.215 1.098 2.326 2.313 2.313 l 51.38 0 c 1.215 0.014 2.326 -1.098 2.313 -2.313 l 0 -35.37 c 0.014 -1.215 -1.098 -2.326 -2.313 -2.313 l -19.688 0 l 0 -1.688 c 0.014 -1.194 -1.056 -2.294 -2.25 -2.313 l -29.438 0 c -0.083 0 -0.167 0 -0.25 0 z m 36.938 10 c 1.657 0 3 1.343 3 3 c 0 1.657 -1.343 3 -3 3 c -1.657 0 -3 -1.343 -3 -3 c 0 -1.657 1.343 -3 3 -3 z m -11 2 c 2.303 0 4.454 0.657 6.281 1.781 c -0.169 0.376 -0.281 0.78 -0.281 1.219 c 0 1.657 1.343 3 3 3 c 0.439 0 0.843 -0.112 1.219 -0.281 c 0.958 1.556 1.556 3.362 1.719 5.281 l -4 0 c -0.494 -3.944 -3.859 -7 -7.938 -7 c -1.17 0 -2.28 0.267 -3.281 0.719 l -2.969 -2.969 c 1.82 -1.117 3.958 -1.75 6.25 -1.75 z m -7.844 2.969 l 2.813 2.813 c -1.809 1.467 -2.969 3.708 -2.969 6.219 c 0 2.721 1.362 5.117 3.438 6.563 l -2.875 2.875 c -2.108 -1.667 -3.627 -4.04 -4.25 -6.75 c 0.995 -0.488 1.688 -1.504 1.688 -2.688 c 0 -1.183 -0.692 -2.199 -1.688 -2.688 c 0.578 -2.512 1.965 -4.706 3.844 -6.344 z m -8.156 6.03 c 1.657 0 3 1.343 3 3 c 0 1.657 -1.343 3 -3 3 c -1.657 0 -3 -1.343 -3 -3 c 0 -1.657 1.343 -3 3 -3 z m 23.938 4 l 4 0 c -0.216 2.612 -1.255 4.973 -2.875 6.844 c -0.539 -0.515 -1.258 -0.844 -2.063 -0.844 c -1.657 0 -3 1.343 -3 3 c 0 0.439 0.112 0.843 0.281 1.219 c -1.333 0.511 -2.769 0.781 -4.281 0.781 c -2.076 0 -4.02 -0.539 -5.719 -1.469 l 3.03 -3.03 c 0.842 0.301 1.742 0.5 2.688 0.5 c 4.078 0 7.444 -3.056 7.938 -7 z m 1.063 8 c 1.657 0 3 1.343 3 3 c 0 1.657 -1.343 3 -3 3 c -1.657 0 -3 -1.343 -3 -3 c 0 -1.657 1.343 -3 3 -3 z" transform="translate(0,988.3622)" style="visibility:visible;fill:#f57c00;fill-opacity:1;stroke:none;display:inline;color:#000;fill-rule:nonzero"/>
 </g>
</svg>
